; G-Code generated by Simplify3D(R) Version 3.1.1
; Aug 13, 2017 at 11:33:25 AM
; Settings Summary
;   processName,Process1
;   applyToModels,bottom
;   profileName,BeraBot
;   profileVersion,2017-06-19 15:13:47
;   baseProfile,
;   printMaterial,
;   printQuality,
;   printExtruders,
;   extruderName,Extruder 1
;   extruderToolheadNumber,0
;   extruderDiameter,0.39
;   extruderAutoWidth,1
;   extruderWidth,0.468
;   extrusionMultiplier,1
;   extruderUseRetract,1
;   extruderRetractionDistance,2
;   extruderExtraRestartDistance,0
;   extruderRetractionZLift,1.4
;   extruderRetractionSpeed,9000
;   extruderUseCoasting,1
;   extruderCoastingDistance,0.2
;   extruderUseWipe,1
;   extruderWipeDistance,5
;   primaryExtruder,0
;   layerHeight,0.25
;   topSolidLayers,4
;   bottomSolidLayers,3
;   perimeterOutlines,2
;   printPerimetersInsideOut,1
;   startPointOption,2
;   startPointOriginX,0
;   startPointOriginY,0
;   startPointOriginZ,300
;   sequentialIslands,0
;   spiralVaseMode,0
;   firstLayerHeightPercentage,100
;   firstLayerWidthPercentage,100
;   firstLayerUnderspeed,0.8
;   useRaft,0
;   raftExtruder,0
;   raftLayers,3
;   raftOffset,3
;   raftSeparationDistance,0.14
;   raftInfill,85
;   disableRaftBaseLayers,0
;   useSkirt,0
;   skirtExtruder,0
;   skirtLayers,2
;   skirtOutlines,15
;   skirtOffset,0
;   usePrimePillar,0
;   primePillarExtruder,999
;   primePillarWidth,12
;   primePillarLocation,7
;   primePillarSpeedMultiplier,1
;   useOozeShield,0
;   oozeShieldExtruder,999
;   oozeShieldOffset,2
;   oozeShieldOutlines,1
;   oozeShieldSidewallShape,1
;   oozeShieldSidewallAngle,30
;   oozeShieldSpeedMultiplier,1
;   infillExtruder,0
;   internalInfillPattern,Fast Honeycomb
;   externalInfillPattern,Rectilinear
;   infillPercentage,10
;   outlineOverlapPercentage,17
;   infillExtrusionWidthPercentage,95
;   minInfillLength,1
;   infillLayerInterval,1
;   infillAngles,0
;   overlapInfillAngles,0
;   generateSupport,0
;   supportExtruder,0
;   supportInfillPercentage,30
;   supportExtraInflation,0
;   denseSupportLayers,0
;   denseSupportInfillPercentage,60
;   supportLayerInterval,1
;   supportHorizontalPartOffset,0.3
;   supportUpperSeparationLayers,1
;   supportLowerSeparationLayers,1
;   supportType,0
;   supportGridSpacing,4
;   maxOverhangAngle,45
;   supportAngles,0
;   temperatureName,Extruder 1 Temperature,heated bed
;   temperatureNumber,0,0
;   temperatureSetpointCount,1,1
;   temperatureSetpointLayers,1,1
;   temperatureSetpointTemperatures,205,70
;   temperatureStabilizeAtStartup,1,0
;   temperatureHeatedBed,0,1
;   temperatureRelayBetweenLayers,0,0
;   temperatureRelayBetweenLoops,0,0
;   fanLayers,1
;   fanSpeeds,100
;   blipFanToFullPower,0
;   adjustSpeedForCooling,1
;   minSpeedLayerTime,15
;   minCoolingSpeedSlowdown,20
;   increaseFanForCooling,0
;   minFanLayerTime,45
;   maxCoolingFanSpeed,100
;   increaseFanForBridging,0
;   bridgingFanSpeed,100
;   use5D,1
;   relativeEdistances,0
;   allowEaxisZeroing,1
;   independentExtruderAxes,0
;   includeM10123,0
;   stickySupport,1
;   applyToolheadOffsets,0
;   gcodeXoffset,0
;   gcodeYoffset,0
;   gcodeZoffset,0
;   overrideMachineDefinition,1
;   machineTypeOverride,0
;   strokeXoverride,145
;   strokeYoverride,145
;   strokeZoverride,145
;   originOffsetXoverride,0
;   originOffsetYoverride,0
;   originOffsetZoverride,-0.9
;   homeXdirOverride,-1
;   homeYdirOverride,-1
;   homeZdirOverride,-1
;   flipXoverride,1
;   flipYoverride,-1
;   flipZoverride,1
;   toolheadOffsets,0,0|0,0|0,0|0,0|0,0|0,0
;   overrideFirmwareConfiguration,1
;   firmwareTypeOverride,RepRap (Marlin/Repetier/Sprinter)
;   GPXconfigOverride,r2
;   baudRateOverride,250000
;   overridePrinterModels,0
;   printerModelsOverride
;   startingGcode,,G21        ;metric values,G90        ;absolute positioning,M82        ;set extruder to absolute mode,;G28 X0 Y0  ;move X/Y to min endstops,;G28 Z0     ;move Z to min endstops,G28,G29,G1 Z15.0 ;move the platform down 15mm,G92 E0                  ;zero the extruded length,G1 F200 E10              ;extrude 10mm of feed stock,G92 E0                  ;zero the extruded length again,G1 F{travel_speed},;Put printing message on LCD screen,M117 It's working...,
;   layerChangeGcode,
;   retractionGcode,
;   toolChangeGcode,
;   endingGcode,M104 S0 ; turn off extruder,M140 S0 ; turn off bed,G91                                    ;relative positioning,G1 E-1 F300                            ;retract the filament a bit before lifting the nozzle, to release some of the pressure,G1 Z+0.5 E-5 X-20 Y-20 F4000 ;move Z up a bit and retract filament even more,G28 X0 Y0                              ;move X/Y to min endstops, so the head is out of the way,M84                         ;steppers off,G90                         ;absolute positioning
;   exportFileFormat,gcode
;   celebration,0
;   celebrationSong,Star Wars
;   postProcessing,{REPLACE "; layer" "M117 Layer"} ,{REPLACE ", Z =" "; Z ="} 
;   defaultSpeed,3000
;   outlineUnderspeed,0.5
;   solidInfillUnderspeed,0.8
;   supportUnderspeed,0.5
;   rapidXYspeed,4800
;   rapidZspeed,1002
;   minBridgingArea,50
;   bridgingExtraInflation,1
;   bridgingExtrusionMultiplier,0.9
;   bridgingSpeedMultiplier,0.3
;   filamentDiameter,1.75
;   filamentPricePerKg,46
;   filamentDensity,1.25
;   useMinPrintHeight,0
;   minPrintHeight,0
;   useMaxPrintHeight,0
;   maxPrintHeight,0
;   useDiaphragm,0
;   diaphragmLayerInterval,20
;   robustSlicing,1
;   mergeAllIntoSolid,0
;   onlyRetractWhenCrossingOutline,1
;   retractBetweenLayers,1
;   useRetractionMinTravel,0
;   retractionMinTravel,3
;   retractWhileWiping,0
;   onlyWipeOutlines,1
;   avoidCrossingOutline,1
;   maxMovementDetourFactor,3
;   toolChangeRetractionDistance,12
;   toolChangeExtraRestartDistance,-0.5
;   toolChangeRetractionSpeed,600
;   allowThinWallGapFill,1
;   thinWallAllowedOverlapPercentage,15
;   horizontalSizeCompensation,0
G90
M82
M106 S255
M140 S70
M104 S205 T0
M109 S205 T0
G21        ;metric values
G90        ;absolute positioning
M82        ;set extruder to absolute mode
;G28 X0 Y0  ;move X/Y to min endstops
;G28 Z0     ;move Z to min endstops
G28
G29
G1 Z15.0 ;move the platform down 15mm
G92 E0                  ;zero the extruded length
G1 F200 E10              ;extrude 10mm of feed stock
G92 E0                  ;zero the extruded length again
G1 F{travel_speed}
;Put printing message on LCD screen
M117 It's working...
G92 E0
G1 E-2.0000 F9000
G1 Z2.550 F1002
M117 Layer 1, Z = 1.15
T0
; tool H0.250 W0.468
; inner perimeter
G1 X14.504 Y16.097 F4800
G1 Z1.150 F1002
G1 E0.0000 F2700
G92 E0
G1 X126.100 Y16.097 E5.4284 F1800
G1 X126.100 Y72.693 E8.1814
G1 X14.504 Y72.693 E13.6097
G1 X14.504 Y16.297 E16.3530
G1 X14.504 Y16.097 F1800
; outer perimeter
G1 X14.036 Y15.629 F4800
G92 E0
G1 X126.568 Y15.629 E5.4739 F1200
G1 X126.568 Y73.161 E8.2724
G1 X14.036 Y73.161 E13.7463
G1 X14.036 Y15.829 E16.5351
G1 X14.036 Y15.629 F1200
G1 X19.036 Y15.629 F3000
; solid layer
G1 X15.127 Y72.304 F4800
G92 E0
G1 X14.893 Y72.070 E0.0161 F1920
G1 X14.893 Y71.405 E0.0484
G1 X15.792 Y72.304 E0.1103
G1 X16.456 Y72.304 E0.1426
G1 X14.893 Y70.741 E0.2501
G1 X14.893 Y70.076 E0.2825
G1 X17.121 Y72.304 E0.4358
G1 X17.786 Y72.304 E0.4681
G1 X14.893 Y69.411 E0.6671
G1 X14.893 Y68.747 E0.6994
G1 X18.450 Y72.304 E0.9441
G1 X19.115 Y72.304 E0.9765
G1 X14.893 Y68.082 E1.2669
G1 X14.893 Y67.417 E1.2993
G1 X19.780 Y72.304 E1.6354
G1 X20.444 Y72.304 E1.6678
G1 X14.893 Y66.753 E2.0497
G1 X14.893 Y66.088 E2.0820
G1 X21.109 Y72.304 E2.5096
G1 X21.774 Y72.304 E2.5419
G1 X14.893 Y65.423 E3.0153
G1 X14.893 Y64.759 E3.0476
G1 X22.438 Y72.304 E3.5667
G1 X23.103 Y72.304 E3.5990
G1 X14.893 Y64.094 E4.1638
G1 X14.893 Y63.429 E4.1962
G1 X23.768 Y72.304 E4.8067
G1 X24.433 Y72.304 E4.8390
G1 X14.893 Y62.765 E5.4953
G1 X14.893 Y62.100 E5.5276
G1 X25.097 Y72.304 E6.2296
G1 X25.762 Y72.304 E6.2619
G1 X14.893 Y61.435 E7.0096
G1 X14.893 Y60.771 E7.0419
G1 X26.427 Y72.304 E7.8353
G1 X27.091 Y72.304 E7.8677
G1 X14.893 Y60.106 E8.7068
G1 X14.893 Y59.441 E8.7391
G1 X27.756 Y72.304 E9.6240
G1 X28.421 Y72.304 E9.6563
G1 X14.893 Y58.776 E10.5869
G1 X14.893 Y58.112 E10.6193
G1 X29.085 Y72.304 E11.5956
G1 X29.750 Y72.304 E11.6279
G1 X14.893 Y57.447 E12.6499
G1 X14.893 Y56.782 E12.6823
G1 X30.415 Y72.304 E13.7500
G1 X31.079 Y72.304 E13.7824
G1 X14.893 Y56.118 E14.8959
G1 X14.893 Y55.453 E14.9282
G1 X31.744 Y72.304 E16.0874
G1 X32.409 Y72.304 E16.1197
G1 X14.893 Y54.788 E17.3247
G1 X14.893 Y54.124 E17.3570
G1 X33.073 Y72.304 E18.6077
G1 X33.738 Y72.304 E18.6400
G1 X14.893 Y53.459 E19.9364
G1 X14.893 Y52.794 E19.9687
G1 X34.403 Y72.304 E21.3108
G1 X35.067 Y72.304 E21.3432
G1 X14.893 Y52.130 E22.7310
G1 X14.893 Y51.465 E22.7633
G1 X35.732 Y72.304 E24.1969
G1 X36.397 Y72.304 E24.2292
G1 X14.893 Y50.800 E25.7085
G1 X14.893 Y50.136 E25.7408
G1 X37.061 Y72.304 E27.2658
G1 X37.726 Y72.304 E27.2982
G1 X14.893 Y49.471 E28.8689
G1 X14.893 Y48.806 E28.9012
G1 X38.391 Y72.304 E30.5177
G1 X39.055 Y72.304 E30.5500
G1 X14.893 Y48.142 E32.2122
G1 X14.893 Y47.477 E32.2445
G1 X39.720 Y72.304 E33.9524
G1 X40.385 Y72.304 E33.9848
G1 X14.893 Y46.812 E35.7384
G1 X14.893 Y46.148 E35.7707
G1 X41.050 Y72.304 E37.5701
G1 X41.714 Y72.304 E37.6024
G1 X14.893 Y45.483 E39.4475
G1 X14.893 Y44.818 E39.4798
G1 X42.379 Y72.304 E41.3706
G1 X43.044 Y72.304 E41.4030
G1 X14.893 Y44.154 E43.3395
G1 X14.893 Y43.489 E43.3718
G1 X43.708 Y72.304 E45.3541
G1 X44.373 Y72.304 E45.3864
G1 X14.893 Y42.824 E47.4144
G1 X14.893 Y42.159 E47.4467
G1 X45.038 Y72.304 E49.5204
G1 X45.702 Y72.304 E49.5527
G1 X14.893 Y41.495 E51.6722
G1 X14.893 Y40.830 E51.7045
G1 X46.367 Y72.304 E53.8697
G1 X47.032 Y72.304 E53.9020
G1 X14.893 Y40.165 E56.1129
G1 X14.893 Y39.501 E56.1452
G1 X47.696 Y72.304 E58.4018
G1 X48.361 Y72.304 E58.4341
G1 X14.893 Y38.836 E60.7364
G1 X14.893 Y38.171 E60.7688
G1 X49.026 Y72.304 E63.1168
G1 X49.690 Y72.304 E63.1492
G1 X14.893 Y37.507 E65.5429
G1 X14.893 Y36.842 E65.5753
G1 X50.355 Y72.304 E68.0147
G1 X51.020 Y72.304 E68.0471
G1 X14.893 Y36.177 E70.5323
G1 X14.893 Y35.513 E70.5646
G1 X51.684 Y72.304 E73.0956
G1 X52.349 Y72.304 E73.1279
G1 X14.893 Y34.848 E75.7046
G1 X14.893 Y34.183 E75.7369
G1 X53.014 Y72.304 E78.3593
G1 X53.678 Y72.304 E78.3916
G1 X14.893 Y33.519 E81.0597
G1 X14.893 Y32.854 E81.0921
G1 X54.343 Y72.304 E83.8059
G1 X55.008 Y72.304 E83.8383
G1 X14.893 Y32.189 E86.5978
G1 X14.893 Y31.525 E86.6302
G1 X55.672 Y72.304 E89.4354
G1 X56.337 Y72.304 E89.4678
G1 X14.893 Y30.860 E92.3188
G1 X14.893 Y30.195 E92.3511
G1 X57.002 Y72.304 E95.2479
G1 X57.667 Y72.304 E95.2802
G1 X14.893 Y29.531 E98.2227
G1 X14.893 Y28.866 E98.2550
G1 X58.331 Y72.304 E101.2432
G1 X58.996 Y72.304 E101.2755
G1 X14.893 Y28.201 E104.3094
G1 X14.893 Y27.537 E104.3417
G1 X59.661 Y72.304 E107.4214
G1 X60.325 Y72.304 E107.4537
G1 X14.893 Y26.872 E110.5791
G1 X14.893 Y26.207 E110.6114
G1 X60.990 Y72.304 E113.7825
G1 X61.655 Y72.304 E113.8148
G1 X14.893 Y25.542 E117.0316
G1 X14.893 Y24.878 E117.0640
G1 X62.319 Y72.304 E120.3265
G1 X62.984 Y72.304 E120.3588
G1 X14.893 Y24.213 E123.6671
G1 X14.893 Y23.548 E123.6994
G1 X63.649 Y72.304 E127.0534
G1 X64.313 Y72.304 E127.0857
G1 X14.893 Y22.884 E130.4854
G1 X14.893 Y22.219 E130.5178
G1 X64.978 Y72.304 E133.9632
G1 X65.643 Y72.304 E133.9955
G1 X14.893 Y21.554 E137.4867
G1 X14.893 Y20.890 E137.5190
G1 X66.307 Y72.304 E141.0559
G1 X66.972 Y72.304 E141.0882
G1 X14.893 Y20.225 E144.6708
G1 X14.893 Y19.560 E144.7032
G1 X67.637 Y72.304 E148.3315
G1 X68.301 Y72.304 E148.3638
G1 X14.893 Y18.896 E152.0379
G1 X14.893 Y18.231 E152.0702
G1 X68.966 Y72.304 E155.7900
G1 X69.631 Y72.304 E155.8223
G1 X14.893 Y17.566 E159.5878
G1 X14.893 Y16.902 E159.6202
G1 X70.295 Y72.304 E163.4314
G1 X70.960 Y72.304 E163.4637
G1 X15.141 Y16.485 E167.3036
G1 X15.806 Y16.485 E167.3359
G1 X71.625 Y72.304 E171.1758
G1 X72.289 Y72.304 E171.2081
G1 X16.470 Y16.485 E175.0480
G1 X17.135 Y16.485 E175.0804
G1 X72.954 Y72.304 E178.9202
G1 X73.619 Y72.304 E178.9526
G1 X17.800 Y16.485 E182.7925
G1 X18.464 Y16.485 E182.8248
G1 X74.284 Y72.304 E186.6647
G1 X74.948 Y72.304 E186.6970
G1 X19.129 Y16.485 E190.5369
G1 X19.794 Y16.485 E190.5692
G1 X75.613 Y72.304 E194.4091
G1 X76.278 Y72.304 E194.4414
G1 X20.458 Y16.485 E198.2813
G1 X21.123 Y16.485 E198.3136
G1 X76.942 Y72.304 E202.1535
G1 X77.607 Y72.304 E202.1859
G1 X21.788 Y16.485 E206.0257
G1 X22.452 Y16.485 E206.0581
G1 X78.272 Y72.304 E209.8980
G1 X78.936 Y72.304 E209.9303
G1 X23.117 Y16.485 E213.7702
G1 X23.782 Y16.485 E213.8025
G1 X79.601 Y72.304 E217.6424
G1 X80.266 Y72.304 E217.6747
G1 X24.447 Y16.485 E221.5146
G1 X25.111 Y16.485 E221.5469
G1 X80.930 Y72.304 E225.3868
G1 X81.595 Y72.304 E225.4191
G1 X25.776 Y16.485 E229.2590
G1 X26.441 Y16.485 E229.2914
G1 X82.260 Y72.304 E233.1312
G1 X82.924 Y72.304 E233.1636
G1 X27.105 Y16.485 E237.0035
G1 X27.770 Y16.485 E237.0358
G1 X83.589 Y72.304 E240.8757
G1 X84.254 Y72.304 E240.9080
G1 X28.435 Y16.485 E244.7479
G1 X29.099 Y16.485 E244.7802
G1 X84.918 Y72.304 E248.6201
G1 X85.583 Y72.304 E248.6524
G1 X29.764 Y16.485 E252.4923
G1 X30.429 Y16.485 E252.5246
G1 X86.248 Y72.304 E256.3645
G1 X86.912 Y72.304 E256.3969
G1 X31.093 Y16.485 E260.2367
G1 X31.758 Y16.485 E260.2691
G1 X87.577 Y72.304 E264.1089
G1 X88.242 Y72.304 E264.1413
G1 X32.423 Y16.485 E267.9812
G1 X33.087 Y16.485 E268.0135
G1 X88.906 Y72.304 E271.8534
G1 X89.571 Y72.304 E271.8857
G1 X33.752 Y16.485 E275.7256
G1 X34.417 Y16.485 E275.7579
G1 X90.236 Y72.304 E279.5978
G1 X90.901 Y72.304 E279.6301
G1 X35.081 Y16.485 E283.4700
G1 X35.746 Y16.485 E283.5024
G1 X91.565 Y72.304 E287.3422
G1 X92.230 Y72.304 E287.3746
G1 X36.411 Y16.485 E291.2144
G1 X37.075 Y16.485 E291.2468
G1 X92.895 Y72.304 E295.0867
G1 X93.559 Y72.304 E295.1190
G1 X37.740 Y16.485 E298.9589
G1 X38.405 Y16.485 E298.9912
G1 X94.224 Y72.304 E302.8311
G1 X94.889 Y72.304 E302.8634
G1 X39.070 Y16.485 E306.7033
G1 X39.734 Y16.485 E306.7356
G1 X95.553 Y72.304 E310.5755
G1 X96.218 Y72.304 E310.6078
G1 X40.399 Y16.485 E314.4477
G1 X41.064 Y16.485 E314.4801
G1 X96.883 Y72.304 E318.3199
G1 X97.547 Y72.304 E318.3523
G1 X41.728 Y16.485 E322.1922
G1 X42.393 Y16.485 E322.2245
G1 X98.212 Y72.304 E326.0644
G1 X98.877 Y72.304 E326.0967
G1 X43.058 Y16.485 E329.9366
G1 X43.722 Y16.485 E329.9689
G1 X99.541 Y72.304 E333.8088
G1 X100.206 Y72.304 E333.8411
G1 X44.387 Y16.485 E337.6810
G1 X45.052 Y16.485 E337.7133
G1 X100.871 Y72.304 E341.5532
G1 X101.535 Y72.304 E341.5856
G1 X45.716 Y16.485 E345.4254
G1 X46.381 Y16.485 E345.4578
G1 X102.200 Y72.304 E349.2977
G1 X102.865 Y72.304 E349.3300
G1 X47.046 Y16.485 E353.1699
G1 X47.710 Y16.485 E353.2022
G1 X103.529 Y72.304 E357.0421
G1 X104.194 Y72.304 E357.0744
G1 X48.375 Y16.485 E360.9143
G1 X49.040 Y16.485 E360.9466
G1 X104.859 Y72.304 E364.7865
G1 X105.524 Y72.304 E364.8188
G1 X49.704 Y16.485 E368.6587
G1 X50.369 Y16.485 E368.6911
G1 X106.188 Y72.304 E372.5309
G1 X106.853 Y72.304 E372.5633
G1 X51.034 Y16.485 E376.4032
G1 X51.698 Y16.485 E376.4355
G1 X107.518 Y72.304 E380.2754
G1 X108.182 Y72.304 E380.3077
G1 X52.363 Y16.485 E384.1476
G1 X53.028 Y16.485 E384.1799
G1 X108.847 Y72.304 E388.0198
G1 X109.512 Y72.304 E388.0521
G1 X53.692 Y16.485 E391.8920
G1 X54.357 Y16.485 E391.9243
G1 X110.176 Y72.304 E395.7642
G1 X110.841 Y72.304 E395.7966
G1 X55.022 Y16.485 E399.6364
G1 X55.687 Y16.485 E399.6688
G1 X111.506 Y72.304 E403.5086
G1 X112.170 Y72.304 E403.5410
G1 X56.351 Y16.485 E407.3809
G1 X57.016 Y16.485 E407.4132
G1 X112.835 Y72.304 E411.2531
G1 X113.500 Y72.304 E411.2854
G1 X57.681 Y16.485 E415.1253
G1 X58.345 Y16.485 E415.1576
G1 X114.164 Y72.304 E418.9975
G1 X114.829 Y72.304 E419.0298
G1 X59.010 Y16.485 E422.8697
G1 X59.675 Y16.485 E422.9020
G1 X115.494 Y72.304 E426.7419
G1 X116.158 Y72.304 E426.7743
G1 X60.339 Y16.485 E430.6141
G1 X61.004 Y16.485 E430.6465
G1 X116.823 Y72.304 E434.4864
G1 X117.488 Y72.304 E434.5187
G1 X61.669 Y16.485 E438.3586
G1 X62.333 Y16.485 E438.3909
G1 X118.152 Y72.304 E442.2308
G1 X118.817 Y72.304 E442.2631
G1 X62.998 Y16.485 E446.1030
G1 X63.663 Y16.485 E446.1353
