; G-Code generated by Simplify3D(R) Version 3.1.1
; Aug 13, 2017 at 11:56:05 AM
; Settings Summary
;   processName,Process1
;   applyToModels,top
;   profileName,BeraBot
;   profileVersion,2017-06-19 15:13:47
;   baseProfile,
;   printMaterial,
;   printQuality,
;   printExtruders,
;   extruderName,Extruder 1
;   extruderToolheadNumber,0
;   extruderDiameter,0.39
;   extruderAutoWidth,1
;   extruderWidth,0.468
;   extrusionMultiplier,1
;   extruderUseRetract,1
;   extruderRetractionDistance,2
;   extruderExtraRestartDistance,0
;   extruderRetractionZLift,1.4
;   extruderRetractionSpeed,9000
;   extruderUseCoasting,1
;   extruderCoastingDistance,0.2
;   extruderUseWipe,1
;   extruderWipeDistance,5
;   primaryExtruder,0
;   layerHeight,0.25
;   topSolidLayers,4
;   bottomSolidLayers,3
;   perimeterOutlines,2
;   printPerimetersInsideOut,1
;   startPointOption,2
;   startPointOriginX,0
;   startPointOriginY,0
;   startPointOriginZ,300
;   sequentialIslands,0
;   spiralVaseMode,0
;   firstLayerHeightPercentage,100
;   firstLayerWidthPercentage,100
;   firstLayerUnderspeed,0.8
;   useRaft,0
;   raftExtruder,0
;   raftLayers,3
;   raftOffset,3
;   raftSeparationDistance,0.14
;   raftInfill,85
;   disableRaftBaseLayers,0
;   useSkirt,0
;   skirtExtruder,0
;   skirtLayers,2
;   skirtOutlines,15
;   skirtOffset,0
;   usePrimePillar,0
;   primePillarExtruder,999
;   primePillarWidth,12
;   primePillarLocation,7
;   primePillarSpeedMultiplier,1
;   useOozeShield,0
;   oozeShieldExtruder,999
;   oozeShieldOffset,2
;   oozeShieldOutlines,1
;   oozeShieldSidewallShape,1
;   oozeShieldSidewallAngle,30
;   oozeShieldSpeedMultiplier,1
;   infillExtruder,0
;   internalInfillPattern,Fast Honeycomb
;   externalInfillPattern,Rectilinear
;   infillPercentage,10
;   outlineOverlapPercentage,17
;   infillExtrusionWidthPercentage,95
;   minInfillLength,1
;   infillLayerInterval,1
;   infillAngles,0
;   overlapInfillAngles,0
;   generateSupport,0
;   supportExtruder,0
;   supportInfillPercentage,30
;   supportExtraInflation,0
;   denseSupportLayers,0
;   denseSupportInfillPercentage,60
;   supportLayerInterval,1
;   supportHorizontalPartOffset,0.3
;   supportUpperSeparationLayers,1
;   supportLowerSeparationLayers,1
;   supportType,0
;   supportGridSpacing,4
;   maxOverhangAngle,45
;   supportAngles,0
;   temperatureName,Extruder 1 Temperature,heated bed
;   temperatureNumber,0,0
;   temperatureSetpointCount,1,1
;   temperatureSetpointLayers,1,1
;   temperatureSetpointTemperatures,205,70
;   temperatureStabilizeAtStartup,1,0
;   temperatureHeatedBed,0,1
;   temperatureRelayBetweenLayers,0,0
;   temperatureRelayBetweenLoops,0,0
;   fanLayers,1
;   fanSpeeds,100
;   blipFanToFullPower,0
;   adjustSpeedForCooling,1
;   minSpeedLayerTime,15
;   minCoolingSpeedSlowdown,20
;   increaseFanForCooling,0
;   minFanLayerTime,45
;   maxCoolingFanSpeed,100
;   increaseFanForBridging,0
;   bridgingFanSpeed,100
;   use5D,1
;   relativeEdistances,0
;   allowEaxisZeroing,1
;   independentExtruderAxes,0
;   includeM10123,0
;   stickySupport,1
;   applyToolheadOffsets,0
;   gcodeXoffset,0
;   gcodeYoffset,0
;   gcodeZoffset,0
;   overrideMachineDefinition,1
;   machineTypeOverride,0
;   strokeXoverride,145
;   strokeYoverride,145
;   strokeZoverride,145
;   originOffsetXoverride,0
;   originOffsetYoverride,0
;   originOffsetZoverride,-0.9
;   homeXdirOverride,-1
;   homeYdirOverride,-1
;   homeZdirOverride,-1
;   flipXoverride,1
;   flipYoverride,-1
;   flipZoverride,1
;   toolheadOffsets,0,0|0,0|0,0|0,0|0,0|0,0
;   overrideFirmwareConfiguration,1
;   firmwareTypeOverride,RepRap (Marlin/Repetier/Sprinter)
;   GPXconfigOverride,r2
;   baudRateOverride,250000
;   overridePrinterModels,0
;   printerModelsOverride
;   startingGcode,,G21        ;metric values,G90        ;absolute positioning,M82        ;set extruder to absolute mode,;G28 X0 Y0  ;move X/Y to min endstops,;G28 Z0     ;move Z to min endstops,G28,G29,G1 Z15.0 ;move the platform down 15mm,G92 E0                  ;zero the extruded length,G1 F200 E10              ;extrude 10mm of feed stock,G92 E0                  ;zero the extruded length again,G1 F{travel_speed},;Put printing message on LCD screen,M117 It's working...,
;   layerChangeGcode,
;   retractionGcode,
;   toolChangeGcode,
;   endingGcode,M104 S0 ; turn off extruder,M140 S0 ; turn off bed,G91                                    ;relative positioning,G1 E-1 F300                            ;retract the filament a bit before lifting the nozzle, to release some of the pressure,G1 Z+0.5 E-5 X-20 Y-20 F4000 ;move Z up a bit and retract filament even more,G28 X0 Y0                              ;move X/Y to min endstops, so the head is out of the way,M84                         ;steppers off,G90                         ;absolute positioning
;   exportFileFormat,gcode
;   celebration,0
;   celebrationSong,Star Wars
;   postProcessing,{REPLACE "; layer" "M117 Layer"} ,{REPLACE ", Z =" "; Z ="} 
;   defaultSpeed,3000
;   outlineUnderspeed,0.5
;   solidInfillUnderspeed,0.8
;   supportUnderspeed,0.5
;   rapidXYspeed,4800
;   rapidZspeed,1002
;   minBridgingArea,50
;   bridgingExtraInflation,1
;   bridgingExtrusionMultiplier,0.9
;   bridgingSpeedMultiplier,0.3
;   filamentDiameter,1.75
;   filamentPricePerKg,46
;   filamentDensity,1.25
;   useMinPrintHeight,0
;   minPrintHeight,0
;   useMaxPrintHeight,0
;   maxPrintHeight,0
;   useDiaphragm,0
;   diaphragmLayerInterval,20
;   robustSlicing,1
;   mergeAllIntoSolid,0
;   onlyRetractWhenCrossingOutline,1
;   retractBetweenLayers,1
;   useRetractionMinTravel,0
;   retractionMinTravel,3
;   retractWhileWiping,0
;   onlyWipeOutlines,1
;   avoidCrossingOutline,1
;   maxMovementDetourFactor,3
;   toolChangeRetractionDistance,12
;   toolChangeExtraRestartDistance,-0.5
;   toolChangeRetractionSpeed,600
;   allowThinWallGapFill,1
;   thinWallAllowedOverlapPercentage,15
;   horizontalSizeCompensation,0
G90
M82
M106 S255
M140 S70
M104 S205 T0
M109 S205 T0
G21        ;metric values
G90        ;absolute positioning
M82        ;set extruder to absolute mode
;G28 X0 Y0  ;move X/Y to min endstops
;G28 Z0     ;move Z to min endstops
G28
G29
G1 Z15.0 ;move the platform down 15mm
G92 E0                  ;zero the extruded length
G1 F200 E10              ;extrude 10mm of feed stock
G92 E0                  ;zero the extruded length again
G1 F{travel_speed}
;Put printing message on LCD screen
M117 It's working...
G92 E0
G1 E-2.0000 F9000
G1 Z2.550 F1002
M117 Layer 1, Z = 1.15
T0
; tool H0.250 W0.468
; inner perimeter
G1 X14.866 Y13.704 F4800
G1 Z1.150 F1002
G1 E0.0000 F2700
G92 E0
G1 X126.462 Y13.704 E5.4284 F1800
G1 X126.462 Y70.300 E8.1814
G1 X14.866 Y70.300 E13.6097
G1 X14.866 Y13.904 E16.3530
G1 X14.866 Y13.704 F1800
; outer perimeter
G1 X14.398 Y13.236 F4800
G92 E0
G1 X126.930 Y13.236 E5.4739 F1200
G1 X126.930 Y70.768 E8.2724
G1 X14.398 Y70.768 E13.7463
G1 X14.398 Y13.436 E16.5351
G1 X14.398 Y13.236 F1200
G1 X19.398 Y13.236 F3000
; solid layer
G1 X15.842 Y69.911 F4800
G92 E0
G1 X15.254 Y69.324 E0.0404 F1920
G1 X15.254 Y68.662 E0.0726
G1 X16.504 Y69.911 E0.1586
G1 X17.165 Y69.911 E0.1908
G1 X15.254 Y68.000 E0.3223
G1 X15.254 Y67.338 E0.3544
G1 X17.827 Y69.911 E0.5315
G1 X18.489 Y69.911 E0.5637
G1 X15.254 Y66.676 E0.7862
G1 X15.254 Y66.014 E0.8184
G1 X19.151 Y69.911 E1.0865
G1 X19.813 Y69.911 E1.1187
G1 X15.254 Y65.353 E1.4323
G1 X15.254 Y64.691 E1.4645
G1 X20.475 Y69.911 E1.8236
G1 X21.137 Y69.911 E1.8558
G1 X15.254 Y64.029 E2.2605
G1 X15.254 Y63.367 E2.2926
G1 X21.798 Y69.911 E2.7428
G1 X22.460 Y69.911 E2.7750
G1 X15.254 Y62.705 E3.2708
G1 X15.254 Y62.043 E3.3029
G1 X23.122 Y69.911 E3.8442
G1 X23.784 Y69.911 E3.8764
G1 X15.254 Y61.382 E4.4632
G1 X15.254 Y60.720 E4.4954
G1 X24.446 Y69.911 E5.1277
G1 X25.108 Y69.911 E5.1599
G1 X15.254 Y60.058 E5.8377
G1 X15.254 Y59.396 E5.8699
G1 X25.770 Y69.911 E6.5933
G1 X26.431 Y69.911 E6.6255
G1 X15.254 Y58.734 E7.3944
G1 X15.254 Y58.072 E7.4266
G1 X27.093 Y69.911 E8.2410
G1 X27.755 Y69.911 E8.2732
G1 X15.254 Y57.410 E9.1332
G1 X15.254 Y56.749 E9.1654
G1 X28.417 Y69.911 E10.0708
G1 X29.079 Y69.911 E10.1030
G1 X15.254 Y56.087 E11.0541
G1 X15.254 Y55.425 E11.0863
G1 X29.741 Y69.911 E12.0828
G1 X30.403 Y69.911 E12.1150
G1 X15.254 Y54.763 E13.1571
G1 X15.254 Y54.101 E13.1893
G1 X31.064 Y69.911 E14.2769
G1 X31.726 Y69.911 E14.3091
G1 X15.254 Y53.439 E15.4422
G1 X15.254 Y52.777 E15.4744
G1 X32.388 Y69.911 E16.6531
G1 X33.050 Y69.911 E16.6853
G1 X15.254 Y52.116 E17.9095
G1 X15.254 Y51.454 E17.9417
G1 X33.712 Y69.911 E19.2114
G1 X34.374 Y69.911 E19.2436
G1 X15.254 Y50.792 E20.5589
G1 X15.254 Y50.130 E20.5911
G1 X35.035 Y69.911 E21.9518
G1 X35.697 Y69.911 E21.9840
G1 X15.254 Y49.468 E23.3904
G1 X15.254 Y48.806 E23.4225
G1 X36.359 Y69.911 E24.8744
G1 X37.021 Y69.911 E24.9066
G1 X15.254 Y48.144 E26.4040
G1 X15.254 Y47.483 E26.4362
G1 X37.683 Y69.911 E27.9791
G1 X38.345 Y69.911 E28.0113
G1 X15.254 Y46.821 E29.5997
G1 X15.254 Y46.159 E29.6319
G1 X39.007 Y69.911 E31.2659
G1 X39.668 Y69.911 E31.2981
G1 X15.254 Y45.497 E32.9776
G1 X15.254 Y44.835 E33.0098
G1 X40.330 Y69.911 E34.7348
G1 X40.992 Y69.911 E34.7670
G1 X15.254 Y44.173 E36.5375
G1 X15.254 Y43.512 E36.5697
G1 X41.654 Y69.911 E38.3858
G1 X42.316 Y69.911 E38.4180
G1 X15.254 Y42.850 E40.2796
G1 X15.254 Y42.188 E40.3118
G1 X42.978 Y69.911 E42.2190
G1 X43.640 Y69.911 E42.2512
G1 X15.254 Y41.526 E44.2038
G1 X15.254 Y40.864 E44.2360
G1 X44.301 Y69.911 E46.2342
G1 X44.963 Y69.911 E46.2664
G1 X15.254 Y40.202 E48.3102
G1 X15.254 Y39.540 E48.3424
G1 X45.625 Y69.911 E50.4316
G1 X46.287 Y69.911 E50.4638
G1 X15.254 Y38.879 E52.5986
G1 X15.254 Y38.217 E52.6308
G1 X46.949 Y69.911 E54.8111
G1 X47.611 Y69.911 E54.8433
G1 X15.254 Y37.555 E57.0692
G1 X15.254 Y36.893 E57.1014
G1 X48.273 Y69.911 E59.3728
G1 X48.934 Y69.911 E59.4050
G1 X15.254 Y36.231 E61.7219
G1 X15.254 Y35.569 E61.7541
G1 X49.596 Y69.911 E64.1165
G1 X50.258 Y69.911 E64.1487
G1 X15.254 Y34.907 E66.5567
G1 X15.254 Y34.246 E66.5889
G1 X50.920 Y69.911 E69.0424
G1 X51.582 Y69.911 E69.0746
G1 X15.254 Y33.584 E71.5736
G1 X15.254 Y32.922 E71.6058
G1 X52.244 Y69.911 E74.1504
G1 X52.905 Y69.911 E74.1826
G1 X15.254 Y32.260 E76.7727
G1 X15.254 Y31.598 E76.8048
G1 X53.567 Y69.911 E79.4405
G1 X54.229 Y69.911 E79.4727
G1 X15.254 Y30.936 E82.1538
G1 X15.254 Y30.274 E82.1860
G1 X54.891 Y69.911 E84.9127
G1 X55.553 Y69.911 E84.9449
G1 X15.254 Y29.613 E87.7171
G1 X15.254 Y28.951 E87.7493
G1 X56.215 Y69.911 E90.5670
G1 X56.877 Y69.911 E90.5992
G1 X15.254 Y28.289 E93.4625
G1 X15.254 Y27.627 E93.4947
G1 X57.538 Y69.911 E96.4035
G1 X58.200 Y69.911 E96.4357
G1 X15.254 Y26.965 E99.3900
G1 X15.254 Y26.303 E99.4222
G1 X58.862 Y69.911 E102.4221
G1 X59.524 Y69.911 E102.4543
G1 X15.254 Y25.642 E105.4997
G1 X15.254 Y24.980 E105.5319
G1 X60.186 Y69.911 E108.6228
G1 X60.848 Y69.911 E108.6550
G1 X15.254 Y24.318 E111.7914
G1 X15.254 Y23.656 E111.8236
G1 X61.510 Y69.911 E115.0056
G1 X62.171 Y69.911 E115.0378
G1 X15.254 Y22.994 E118.2653
G1 X15.254 Y22.332 E118.2975
G1 X62.833 Y69.911 E121.5705
G1 X63.495 Y69.911 E121.6027
G1 X15.254 Y21.670 E124.9213
G1 X15.254 Y21.009 E124.9535
G1 X64.157 Y69.911 E128.3176
G1 X64.819 Y69.911 E128.3498
G1 X15.254 Y20.347 E131.7594
G1 X15.254 Y19.685 E131.7916
G1 X65.481 Y69.911 E135.2468
G1 X66.143 Y69.911 E135.2790
G1 X15.254 Y19.023 E138.7797
G1 X15.254 Y18.361 E138.8119
G1 X66.804 Y69.911 E142.3581
G1 X67.466 Y69.911 E142.3903
G1 X15.254 Y17.699 E145.9820
G1 X15.254 Y17.037 E146.0142
G1 X68.128 Y69.911 E149.6515
G1 X68.790 Y69.911 E149.6837
G1 X15.254 Y16.376 E153.3665
G1 X15.254 Y15.714 E153.3987
G1 X69.452 Y69.911 E157.1270
G1 X70.114 Y69.911 E157.1592
G1 X15.254 Y15.052 E160.9331
G1 X15.254 Y14.390 E160.9653
G1 X70.775 Y69.911 E164.7847
G1 X71.437 Y69.911 E164.8169
G1 X15.618 Y14.092 E168.6568
G1 X16.280 Y14.092 E168.6890
G1 X72.099 Y69.911 E172.5288
G1 X72.761 Y69.911 E172.5610
G1 X16.942 Y14.092 E176.4009
G1 X17.604 Y14.092 E176.4331
G1 X73.423 Y69.911 E180.2730
G1 X74.085 Y69.911 E180.3052
G1 X18.266 Y14.092 E184.1451
G1 X18.927 Y14.092 E184.1773
G1 X74.747 Y69.911 E188.0171
G1 X75.408 Y69.911 E188.0493
G1 X19.589 Y14.092 E191.8892
G1 X20.251 Y14.092 E191.9214
G1 X76.070 Y69.911 E195.7613
G1 X76.732 Y69.911 E195.7935
G1 X20.913 Y14.092 E199.6334
G1 X21.575 Y14.092 E199.6656
G1 X77.394 Y69.911 E203.5054
G1 X78.056 Y69.911 E203.5376
G1 X22.237 Y14.092 E207.3775
G1 X22.899 Y14.092 E207.4097
G1 X78.718 Y69.911 E211.2496
G1 X79.380 Y69.911 E211.2818
G1 X23.560 Y14.092 E215.1217
G1 X24.222 Y14.092 E215.1539
G1 X80.041 Y69.911 E218.9938
G1 X80.703 Y69.911 E219.0259
G1 X24.884 Y14.092 E222.8658
G1 X25.546 Y14.092 E222.8980
G1 X81.365 Y69.911 E226.7379
G1 X82.027 Y69.911 E226.7701
G1 X26.208 Y14.092 E230.6100
G1 X26.870 Y14.092 E230.6422
G1 X82.689 Y69.911 E234.4821
G1 X83.351 Y69.911 E234.5143
G1 X27.532 Y14.092 E238.3541
G1 X28.193 Y14.092 E238.3863
G1 X84.013 Y69.911 E242.2262
G1 X84.674 Y69.911 E242.2584
G1 X28.855 Y14.092 E246.0983
G1 X29.517 Y14.092 E246.1305
G1 X85.336 Y69.911 E249.9704
G1 X85.998 Y69.911 E250.0026
G1 X30.179 Y14.092 E253.8424
G1 X30.841 Y14.092 E253.8746
G1 X86.660 Y69.911 E257.7145
G1 X87.322 Y69.911 E257.7467
G1 X31.503 Y14.092 E261.5866
G1 X32.165 Y14.092 E261.6188
G1 X87.984 Y69.911 E265.4587
G1 X88.645 Y69.911 E265.4909
G1 X32.826 Y14.092 E269.3307
G1 X33.488 Y14.092 E269.3629
G1 X89.307 Y69.911 E273.2028
G1 X89.969 Y69.911 E273.2350
G1 X34.150 Y14.092 E277.0749
G1 X34.812 Y14.092 E277.1071
G1 X90.631 Y69.911 E280.9470
G1 X91.293 Y69.911 E280.9792
G1 X35.474 Y14.092 E284.8191
G1 X36.136 Y14.092 E284.8512
G1 X91.955 Y69.911 E288.6911
G1 X92.617 Y69.911 E288.7233
G1 X36.797 Y14.092 E292.5632
G1 X37.459 Y14.092 E292.5954
G1 X93.278 Y69.911 E296.4353
G1 X93.940 Y69.911 E296.4675
G1 X38.121 Y14.092 E300.3074
G1 X38.783 Y14.092 E300.3396
G1 X94.602 Y69.911 E304.1794
G1 X95.264 Y69.911 E304.2116
G1 X39.445 Y14.092 E308.0515
G1 X40.107 Y14.092 E308.0837
G1 X95.926 Y69.911 E311.9236
G1 X96.588 Y69.911 E311.9558
G1 X40.769 Y14.092 E315.7957
G1 X41.430 Y14.092 E315.8279
G1 X97.250 Y69.911 E319.6677
G1 X97.911 Y69.911 E319.6999
G1 X42.092 Y14.092 E323.5398
G1 X42.754 Y14.092 E323.5720
G1 X98.573 Y69.911 E327.4119
G1 X99.235 Y69.911 E327.4441
G1 X43.416 Y14.092 E331.2840
G1 X44.078 Y14.092 E331.3162
G1 X99.897 Y69.911 E335.1560
G1 X100.559 Y69.911 E335.1882
G1 X44.740 Y14.092 E339.0281
G1 X45.402 Y14.092 E339.0603
G1 X101.221 Y69.911 E342.9002
G1 X101.883 Y69.911 E342.9324
G1 X46.063 Y14.092 E346.7723
G1 X46.725 Y14.092 E346.8045
G1 X102.544 Y69.911 E350.6443
G1 X103.206 Y69.911 E350.6765
G1 X47.387 Y14.092 E354.5164
G1 X48.049 Y14.092 E354.5486
G1 X103.868 Y69.911 E358.3885
G1 X104.530 Y69.911 E358.4207
G1 X48.711 Y14.092 E362.2606
G1 X49.373 Y14.092 E362.2928
G1 X105.192 Y69.911 E366.1327
G1 X105.854 Y69.911 E366.1648
G1 X50.035 Y14.092 E370.0047
G1 X50.696 Y14.092 E370.0369
G1 X106.515 Y69.911 E373.8768
G1 X107.177 Y69.911 E373.9090
G1 X51.358 Y14.092 E377.7489
G1 X52.020 Y14.092 E377.7811
G1 X107.839 Y69.911 E381.6210
G1 X108.501 Y69.911 E381.6532
G1 X52.682 Y14.092 E385.4930
G1 X53.344 Y14.092 E385.5252
G1 X109.163 Y69.911 E389.3651
G1 X109.825 Y69.911 E389.3973
G1 X54.006 Y14.092 E393.2372
G1 X54.667 Y14.092 E393.2694
G1 X110.487 Y69.911 E397.1093
G1 X111.148 Y69.911 E397.1415
G1 X55.329 Y14.092 E400.9813
G1 X55.991 Y14.092 E401.0135
G1 X111.810 Y69.911 E404.8534
G1 X112.472 Y69.911 E404.8856
G1 X56.653 Y14.092 E408.7255
G1 X57.315 Y14.092 E408.7577
G1 X113.134 Y69.911 E412.5976
G1 X113.796 Y69.911 E412.6298
G1 X57.977 Y14.092 E416.4696
G1 X58.639 Y14.092 E416.5018
G1 X114.458 Y69.911 E420.3417
G1 X115.120 Y69.911 E420.3739
G1 X59.300 Y14.092 E424.2138
G1 X59.962 Y14.092 E424.2460
G1 X115.781 Y69.911 E428.0859
G1 X116.443 Y69.911 E428.1181
G1 X60.624 Y14.092 E431.9579
G1 X61.286 Y14.092 E431.9901
G1 X117.105 Y69.911 E435.8300
G1 X117.767 Y69.911 E435.8622
G1 X61.948 Y14.092 E439.7021
G1 X62.610 Y14.092 E439.7343
G1 X118.429 Y69.911 E443.5742
G1 X119.091 Y69.911 E443.6064
G1 X63.272 Y14.092 E447.4463
G1 X63.933 Y14.092 E447.4784
G1 X119.753 Y69.911 E451.3183
